X: 134
T:The Gay Leopard
M:4/4
L:1/8
R:Schottische
N:Schottische-ified first cousin of ceilidh tune Galoped
Z:Steve Mansfield 12/3/00
K:G
dc | B3cA3B | GAGE D2GF | EDEF G2AB | c2B2A2dc | B3cA3B | GAGE D2GF |
EDEF GFGc | B2G2G2 :: Bc | d2gfe2dd | edcBA2GA | BABd cBAG |
FGABA2Bc | d2gfe2dd | edcBA2GA | BABd cBAG | E2F2G2 :|
<end>
<start>
